X:27
T:Bay Horse
T:Marmalade Polka (whole)
M:4/4
L:1/8
K:G
||z6D2| "G" G2G2 "G" GABc| "G" ddd2 "C" d2ed| "C" ccc2 "C" c2dc| "Bm" BBB2 "Bm" B3A|
"G" G2G2 "G" GABc| "G" ddd2 "C" d2ed| "C" c2AA "D" A2F2| "Am" A2 "G" G2G2d2|
"C" e2d2 "G" B2G2| "G" G2F2 "D" F4| "C" e2d2 "C" c2A2| "G" A2G2 "G" G2Bd|
"G" g2g2 "G" g2ag| "C" f2e2 "C" e3e| "G" d2Bd "C" cAFG| "Am" A2 "G" G2G2d2|
"C" e2d2 "G" B2G2| "G" G2F2 "D" F4| "C" e2d2 "C" c2A2| "G" A2G2 "G" G2Bd|
"G" g2g2 "G" g2ag| "C" f2e2 "C" e3e| "G" d2Bd "C" cAFG| "Am" A2 "G" G2G2D2|
"G" G2G2 "G" GABc| "G" ddd2 "C" d2ed| "C" ccc2 "C" c2dc| "Bm" BBB2 "Bm" B3A|
"G" G2G2 "G" GABc| "G" ddd2 "C" d2ed| "C" c2AA "D" A2F2| "Am" A2 "G" G2G2d2|
"C" e2d2 "G" B2G2| "G" G2F2 "D" F4| "C" e2d2 "C" c2A2| "G" A2G2 "G" G2Bd|
"G" g2g2 "G" g2ag| "C" f2e2 "C" e3e| "G" d2Bd "C" cAFG| "Am" A2 "G" G2G2d2|
"C" e2d2 "G" B2G2| "G" G2F2 "D" F4| "C" e2d2 "C" c2A2| "G" A2G2 "G" G2Bd|
"G" g2g2 "G" g2ag| "C" f2e2 "C" e3e| "G" d2Bd "C" cAFG| "Am" A2 "G" G2G2D2|
"G" G2G2 "G" GABc| "G" ddd2 "C" d2ed| "C" ccc2 "C" c2dc| "Bm" BBB2 "Bm" B3A|
"G" G2G2 "G" GABc| "G" ddd2 "C" d2ed| "C" c2AA "D" A2F2| "Am" A2 "G" G2G2D2|
"G" G2G2 "G" GABc| "G" ddd2 "C" d2ed| "C" ccc2 "C" c2dc| "Bm" BBB2 "Bm" B3A|
"G" G2G2 "G" GABc| "G" ddd2 "C" d2ed| "C" c2AA "D" A2F2| "Am" A2 "G" G2G2D2|
"G" G2G2 "G" GABc| "G" ddd2 "C" d2ed| "C" ccc2 "C" c2dc| "Bm" BBB2 "Bm" B3A|
"G" G2G2 "G" GABc| "G" ddd2 "C" d2ed| "C" c2AA "D" A2F2| "Am" A2 "G" G2G2d2|
"C" e2d2 "G" B2G2| "G" G2F2 "D" F4| "C" e2d2 "C" c2A2| "G" A2G2 "G" G2Bd|
"G" g2g2 "G" g2ag| "C" f2e2 "C" e3e| "G" d2Bd "C" cAFG| "Am" A2 "G" G2G2d2|
"C" e2d2 "G" B2G2| "G" G2F2 "D" F4| "C" e2d2 "C" c2A2| "G" A2G2 "G" G2Bd|
"G" g2g2 "G" g2ag| "C" f2e2 "C" e3e| "G" d2Bd "C" cAFG| "Am" A2 "G" G2G2D2|
"G" G2G2 "G" GABc| "G" ddd2 "C" d2ed| "C" ccc2 "C" c2dc| "Bm" BBB2 "Bm" B3A|
"G" G2G2 "G" GABc| "G" ddd2 "C" d2ed| "C" c2AA "D" A2F2| "Am" A2 "G" G2G2D2|
"G" G2G2 "G" GABc| "G" ddd2 "C" d2ed| "C" ccc2 "C" c2dc| "Bm" BBB2 "Bm" B3A|
"G" G2G2 "G" GABc| "G" ddd2 "C" d2ed| "C" c2AA "D" A2F2| "Am" A2 "G" G2G2d2|
"C" e2d2 "G" B2G2| "G" G2F2 "D" F4| "C" e2d2 "C" c2A2| "G" A2G2 "G" G2Bd|
"G" g2g2 "G" g2ag| "C" f2e2 "C" e3e| "G" d2Bd "C" cAFG| "Am" A2 "G" G2G2d2|
"C" e2d2 "G" B2G2| "G" G2F2 "D" F4| "C" e2d2 "C" c2A2| "G" A2G2 "G" G2Bd|
"G" g2g2 "G" g2ag| "C" f2e2 "C" e3e| "G" d2Bd "C" cAFG| "Am" A2 "G" G2G2D2||

